public/icons/csharp.svg

<?xml version="1.0" encoding="UTF-8"?>
<svg xmlns="http://www.w3.org/2000/svg" xmlns:xlink="http://www.w3.org/1999/xlink" viewBox="0 0 32 32" version="1.1" width="50px" height="50px">
<g id="surface1">
<path style=" " d="M 16 2.882813 L 3 9.382813 L 3 22.617188 L 16 29.117188 L 29 22.617188 L 29 9.382813 Z M 16 5.117188 L 27 10.617188 L 27 21.382813 L 16 26.882813 L 5 21.382813 L 5 10.617188 Z M 13 10 C 9.699219 10 7 12.699219 7 16 C 7 19.300781 9.699219 22 13 22 C 14.5 22 15.902344 21.398438 16.902344 20.5 L 15.199219 19.300781 C 14.597656 19.699219 13.800781 20 13 20 C 10.800781 20 9 18.199219 9 16 C 9 13.800781 10.800781 12 13 12 C 13.800781 12 14.597656 12.300781 15.199219 12.699219 L 16.902344 11.5 C 15.902344 10.601563 14.5 10 13 10 Z M 18 12 L 18 13 L 17 13 L 17 15 L 18 15 L 18 17 L 17 17 L 17 19 L 18 19 L 18 20 L 20 20 L 20 19 L 22 19 L 22 20 L 24 20 L 24 19 L 25 19 L 25 17 L 24 17 L 24 15 L 25 15 L 25 13 L 24 13 L 24 12 L 22 12 L 22 13 L 20 13 L 20 12 Z M 20 15 L 22 15 L 22 17 L 20 17 Z "/>
</g>
</svg>

<svg xmlns="http://www.w3.org/2000/svg" width="50" height="50" viewBox="0 0 32 32"><path d="M16 2.88L3 9.38v13.24l13 6.5 13-6.5V9.38zm0 2.24l11 5.5v10.76l-11 5.5-11-5.5V10.62zM13 10c-3.3 0-6 2.7-6 6s2.7 6 6 6c1.5 0 2.9-.6 3.9-1.5l-1.7-1.2c-.6.4-1.4.7-2.2.7-2.2 0-4-1.8-4-4s1.8-4 4-4c.8 0 1.6.3 2.2.7l1.7-1.2c-1-.9-2.4-1.5-3.9-1.5zm5 2v1h-1v2h1v2h-1v2h1v1h2v-1h2v1h2v-1h1v-2h-1v-2h1v-2h-1v-1h-2v1h-2v-1zm2 3h2v2h-2z"/></svg>
